Ulule.svg

<svg xmlns="http://www.w3.org/2000/svg" viewBox="0 0 100 100"><defs><clipPath><path d="m0 841.89h595.28v-841.89h-595.28v841.89"/></clipPath><linearGradient y2="61.754" x2="48.725" y1="85.34" x1="84.49" gradientUnits="userSpaceOnUse" id="0"><stop stop-opacity=".374"/><stop offset="1" stop-opacity="0"/></linearGradient></defs><g fill="#fff"><path d="m87.86 0h-75.73c-6.702 0-12.136 5.434-12.136 12.136v75.73c0 6.702 5.433 12.136 12.136 12.136h75.73c6.702 0 12.136-5.433 12.136-12.136v-75.73c0-6.702-5.433-12.136-12.136-12.136"/><path d="m12.138 0c-6.702 0-12.138 5.435-12.138 12.138v75.72c0 6.702 5.435 12.138 12.138 12.138h75.72c6.702 0 12.138-5.435 12.138-12.138v-75.72c0-6.702-5.435-12.138-12.138-12.138h-75.72"/></g><path d="m12.138 0c-6.702 0-12.138 5.435-12.138 12.138v75.72c0 6.702 5.435 12.138 12.138 12.138h75.72c6.702 0 12.137-5.435 12.138-12.138v-75.72c0-6.702-5.435-12.137-12.138-12.137h-75.72m6.06 8h63.61c5.63 0 10.2 4.564 10.2 10.194v63.61c0 5.63-4.57 10.2-10.2 10.2h-63.61c-5.63 0-10.194-4.57-10.194-10.2v-63.61c0-5.63 4.564-10.194 10.194-10.194" fill-opacity=".784"/><path d="m0 0c-.369 0-.723-.207-.894-.531-2.853-5.309-8.478-8.746-14.58-8.746h-.107c-4.438.035-8.578 1.781-11.691 4.931-3.087 3.131-4.77 7.244-4.78 11.628v.081l-.027.036h.037c.053 9.07 7.496 16.461 16.56 16.452h.108c6.07-.036 11.645-3.483 14.48-8.749l.37-.684c-1.225-1.539-1.945-3.293-1.945-5.156l.009-.099c.019-1.998.856-3.879 2.269-5.499l.188-.081h.004l.188.081c1.414 1.62 2.25 3.501 2.269 5.499l.009.099c0 1.863-.72 3.617-1.945 5.156l.37.684c2.835 5.266 8.415 8.713 14.48 8.749h.108c9.06.009 16.507-7.381 16.56-16.452h.037l-.027-.036v-.081c-.01-4.384-1.693-8.497-4.779-11.628-3.114-3.15-7.254-4.896-11.692-4.931h-.107c-6.102 0-11.727 3.437-14.58 8.746-.171.324-.525.531-.894.531h.002" fill="#fff" transform="matrix(.97651 0 0-.97651 50 58.947)"/><path d="m0 0c-.1-.008-.207-.008-.307-.018.1.01.207.01.307.01v.008" fill="#949494" transform="matrix(.97651 0 0-.97651 66 38.786)"/><path d="m0 0v-.01c.107 0 .207 0 .314-.008-.107.008-.207.008-.314.018" fill="#adadad" transform="matrix(.97651 0 0-.97651 33.995 38.784)"/><path d="m0 0c-.104.008-.209.01-.314.014.029-.559.552-1.092 1.052-1.547.61-.576 1.01-1.129 1-2.067v-.007c-.005-1.392-1.194-2.39-2.503-2.396h-.007c-1.325.01-2.405 1.162-2.413 2.427l-.002.043c-.003.955.507 1.517.965 1.957.501.494.989.881 1.02 1.588-5.842-.252-10.485-5.077-10.445-10.974.041-6.04 4.966-10.893 10.998-10.852 6.04.041 10.89 4.965 10.851 11-.039 5.761-4.541 10.444-10.203 10.813" fill="#00a6f0" fill-rule="evenodd" transform="matrix(.97651 0 0-.97651 34.3 38.803)"/><path d="m0 0c-.369 0-.723-.207-.894-.531-2.853-5.309-8.478-8.746-14.58-8.746h-.107c-4.438.035-8.578 1.781-11.691 4.931-3.087 3.131-4.77 7.244-4.78 11.628v.081l-.027.036h.037c.053 9.07 7.496 16.461 16.56 16.452h.108c6.07-.036 11.645-3.483 14.48-8.749l.37-.684c-1.225-1.539-1.945-3.293-1.945-5.156l.009-.099c.019-1.998.856-3.879 2.269-5.499l.188-.081h.004l.188.081c1.414 1.62 2.25 3.501 2.269 5.499l.009.099c0 1.863-.72 3.617-1.945 5.156l.37.684c2.835 5.266 8.415 8.713 14.48 8.749h.108c9.06.009 16.507-7.381 16.56-16.452h.037l-.027-.036v-.081c-.01-4.384-1.693-8.497-4.779-11.628-3.114-3.15-7.254-4.896-11.692-4.931h-.107c-6.102 0-11.727 3.437-14.58 8.746-.171.324-.525.531-.894.531h.002m-.001-23.516h.466c.449.004.895.024 1.342.043v-1.681c0-.854.671-1.526 1.524-1.526.855 0 1.525.672 1.525 1.526v1.951c17.05 2.224 31.841 16.469 31.07 34.463v-.002 17.9c0 .383-.147.767-.44 1.06-.293.293-.678.439-1.06.439-.385 0-.768-.146-1.061-.439l-2.521-2.521c-6.406 10.412-18.1 17.392-30.851 17.306-12.752.086-24.445-6.894-30.851-17.306l-2.521 2.521c-.293.293-.676.439-1.061.439-.382 0-.767-.146-1.06-.439-.293-.293-.44-.677-.44-1.06v-17.9.002c-.766-17.994 14.02-32.24 31.07-34.463v-1.951c0-.854.67-1.526 1.525-1.526.854 0 1.524.672 1.524 1.526v1.681c.447-.019.893-.039 1.342-.043h.466" transform="matrix(.97651 0 0-.97651 50 58.947)"/><path d="m0 0c.609-.576 1.01-1.129 1-2.066v-.008c-.005-1.392-1.194-2.39-2.503-2.396h-.007c-1.325.01-2.405 1.162-2.413 2.427l-.002.043c-.004.955.507 1.518.965 1.957.501.494.988.881 1.02 1.588-3.92-.248-7.01-3.514-6.986-7.491.027-4.123 3.392-7.442 7.515-7.414 4.123.029 7.441 3.394 7.415 7.515-.026 3.859-2.982 7.02-6.743 7.378-.105.008-.209.01-.315.014.03-.559.553-1.092 1.053-1.547" fill="#00608b" transform="matrix(.97651 0 0-.97651 35.02 40.3)"/><path d="m0 0v-.01c-.107 0-.207 0-.314-.008.107.008.207.008.314.018" fill="#adadad" transform="matrix(.97651 0 0-.97651 66 38.784)"/><path d="m0 0c.104.008.209.01.314.014-.029-.559-.552-1.092-1.052-1.547-.61-.576-1.01-1.129-1-2.067v-.007c.005-1.392 1.194-2.39 2.503-2.396h.007c1.325.01 2.405 1.162 2.413 2.427l.002.043c.003.955-.507 1.517-.965 1.957-.501.494-.989.881-1.02 1.588 5.842-.252 10.485-5.077 10.445-10.974-.041-6.04-4.966-10.893-10.998-10.852-6.04.041-10.89 4.965-10.851 11 .039 5.761 4.541 10.444 10.203 10.813" fill="#f00" fill-rule="evenodd" transform="matrix(.97651 0 0-.97651 65.7 38.803)"/><path d="m0 0c-.609-.576-1.01-1.129-1-2.066v-.008c.005-1.392 1.194-2.39 2.503-2.396h.007c1.325.01 2.405 1.162 2.413 2.427l.002.043c.004.955-.507 1.518-.965 1.957-.501.494-.988.881-1.02 1.588 3.92-.248 7.01-3.514 6.986-7.491-.027-4.123-3.392-7.442-7.515-7.414-4.123.029-7.441 3.394-7.415 7.515.026 3.859 2.982 7.02 6.743 7.378.105.008.209.01.315.014-.03-.559-.553-1.092-1.053-1.547" fill="#ad0000" transform="matrix(.97651 0 0-.97651 64.977 40.3)"/><path d="m12.138 0c-6.702 0-12.138 5.435-12.138 12.138v75.73c0 6.702 5.435 12.138 12.138 12.137h75.73c6.702 0 12.137-5.435 12.137-12.137v-75.73c0-6.702-5.435-12.138-12.137-12.138z" fill="url(#0)"/></svg>

<?xml version="1.0" encoding="UTF-8" standalone="no"?>
<!-- Created with Inkscape (http://www.inkscape.org/) -->

<svg
   xmlns:dc="http://purl.org/dc/elements/1.1/"
   xmlns:cc="http://creativecommons.org/ns#"
   xmlns:rdf="http://www.w3.org/1999/02/22-rdf-syntax-ns#"
   xmlns:svg="http://www.w3.org/2000/svg"
   xmlns="http://www.w3.org/2000/svg"
   xmlns:xlink="http://www.w3.org/1999/xlink"
   xmlns:sodipodi="http://sodipodi.sourceforge.net/DTD/sodipodi-0.dtd"
   xmlns:inkscape="http://www.inkscape.org/namespaces/inkscape"
   width="100"
   height="100"
   id="svg3932"
   version="1.1"
   inkscape:version="0.48.4 r9939"
   sodipodi:docname="Ulule.svg">
  <metadata
     id="metadata13">
    <rdf:RDF>
      <cc:Work
         rdf:about="">
        <dc:format>image/svg+xml</dc:format>
        <dc:type
           rdf:resource="http://purl.org/dc/dcmitype/StillImage" />
      </cc:Work>
    </rdf:RDF>
  </metadata>
  <defs
     id="defs11">
    <linearGradient
       id="linearGradient3793">
      <stop
         style="stop-color:#000000;stop-opacity:0.78431374;"
         offset="0"
         id="stop3795" />
      <stop
         style="stop-color:#ffffff;stop-opacity:0;"
         offset="1"
         id="stop3797" />
    </linearGradient>
    <clipPath
       id="clipPath3003"
       clipPathUnits="userSpaceOnUse">
      <path
         id="path3005-8"
         d="m 0,841.89 595.28,0 L 595.28,0 0,0 0,841.89 z" />
    </clipPath>
    <clipPath
       id="clipPath3110"
       clipPathUnits="userSpaceOnUse">
      <path
         id="path3112"
         d="m 0,841.89 595.28,0 L 595.28,0 0,0 0,841.89 z" />
    </clipPath>
    <linearGradient
       inkscape:collect="always"
       xlink:href="#linearGradient5322"
       id="linearGradient3799"
       x1="-72.770866"
       y1="98.260445"
       x2="-108.53157"
       y2="74.678169"
       gradientUnits="userSpaceOnUse"
       gradientTransform="translate(157.25636,-12.92373)" />
    <linearGradient
       inkscape:collect="always"
       xlink:href="#linearGradient5322"
       id="linearGradient5328"
       x1="644.28564"
       y1="1009.505"
       x2="334.28577"
       y2="796.64795"
       gradientUnits="userSpaceOnUse"
       gradientTransform="matrix(0.19999998,0,0,0.19999998,-3.6000001e-5,841.88978)" />
    <linearGradient
       id="linearGradient5322">
      <stop
         style="stop-color:#000000;stop-opacity:0.37391305;"
         offset="0"
         id="stop5324" />
      <stop
         style="stop-color:#000000;stop-opacity:0;"
         offset="1"
         id="stop5326" />
    </linearGradient>
    <linearGradient
       y2="796.64795"
       x2="334.28577"
       y1="1009.505"
       x1="644.28564"
       gradientTransform="matrix(0.19999998,0,0,0.19999998,-239.28614,-118.33683)"
       gradientUnits="userSpaceOnUse"
       id="linearGradient3006"
       xlink:href="#linearGradient5322"
       inkscape:collect="always" />
    <linearGradient
       inkscape:collect="always"
       xlink:href="#linearGradient5322-9"
       id="linearGradient3799-4"
       x1="-72.770866"
       y1="98.260445"
       x2="-108.53157"
       y2="74.678169"
       gradientUnits="userSpaceOnUse"
       gradientTransform="translate(157.25636,-12.92373)" />
    <linearGradient
       id="linearGradient5322-9">
      <stop
         style="stop-color:#000000;stop-opacity:0.37391305;"
         offset="0"
         id="stop5324-1" />
      <stop
         style="stop-color:#000000;stop-opacity:0;"
         offset="1"
         id="stop5326-3" />
    </linearGradient>
    <linearGradient
       y2="74.678169"
       x2="-108.53157"
       y1="98.260445"
       x1="-72.770866"
       gradientTransform="translate(157.25636,-12.923729)"
       gradientUnits="userSpaceOnUse"
       id="linearGradient3850"
       xlink:href="#linearGradient5322-9"
       inkscape:collect="always" />
  </defs>
  <sodipodi:namedview
     pagecolor="#ffffff"
     bordercolor="#666666"
     borderopacity="1"
     objecttolerance="10"
     gridtolerance="10"
     guidetolerance="10"
     inkscape:pageopacity="0"
     inkscape:pageshadow="2"
     inkscape:window-width="1920"
     inkscape:window-height="1145"
     id="namedview9"
     showgrid="false"
     inkscape:zoom="5.3400704"
     inkscape:cx="45.360939"
     inkscape:cy="34.852967"
     inkscape:window-x="-2"
     inkscape:window-y="-3"
     inkscape:window-maximized="1"
     inkscape:current-layer="svg3932" />
  <path
     style="fill:#ffffff;fill-opacity:1;display:inline"
     d="m 87.86405,4e-5 -75.72814,0 C 5.43349,4e-5 1.0000055e-5,5.43354 1.0000055e-5,12.13596 l 0,75.7281 C 1.0000055e-5,94.5665 5.43351,100 12.13591,100 l 75.72814,0 c 6.70244,0 12.13594,-5.4335 12.13594,-12.13594 l 0,-75.7281 C 99.99999,5.43354 94.56675,4e-5 87.86405,4e-5 z"
     id="path5"
     inkscape:connector-curvature="0" />
  <path
     style="fill:#ffffff;display:inline"
     d="M 12.1375,0 C 5.43506,0 0,5.43508 0,12.1375 L 0,87.86249 C 0,94.56492 5.43506,100 12.1375,100 l 75.725,0 C 94.56492,100 100,94.56492 100,87.86249 L 100,12.1375 C 100,5.43508 94.56516,0 87.8625,0 l -75.725,0 z"
     id="path3009"
     inkscape:connector-curvature="0" />
  <path
     style="fill:#000000;fill-opacity:0.78431373;display:inline"
     d="M 12.1375,2e-5 C 5.435084,2e-5 -1.999989e-5,5.4351 0,12.13752 l 0,75.725 c 0,6.7024 5.435084,12.13752 12.1375,12.1375 l 75.725,0 c 6.70244,0 12.13748,-5.4351 12.1375,-12.1375 l 0,-75.725 C 100,5.4351 94.56516,2e-5 87.8625,2e-5 l -75.725,0 z m 6.056251,8 63.606249,0 c 5.630236,0 10.2,4.56372 10.2,10.19375 l 0,63.60625 c -1.6e-5,5.63002 -4.56995,10.2 -10.2,10.2 l -63.606249,0 C 12.56372,92.00003 8,87.43004 8,81.80002 L 8,18.19377 C 7.999984,12.56374 12.56372,8.00002 18.193751,8.00002 z"
     id="path7-8-6-9"
     inkscape:connector-curvature="0" />
  <g
     id="g3296"
     transform="matrix(0.78120874,0,0,0.78120874,-245.4281,25.828082)">
    <g
       transform="matrix(1.25,0,0,-1.25,378.16919,42.394055)"
       id="g3027">
      <path
         id="path3029"
         style="fill:#ffffff;fill-opacity:1;fill-rule:nonzero;stroke:none"
         d="m 0,0 c -0.369,0 -0.723,-0.207 -0.894,-0.531 -2.853,-5.309 -8.478,-8.746 -14.58,-8.746 l -0.107,0 c -4.438,0.035 -8.578,1.781 -11.691,4.931 -3.087,3.131 -4.77,7.244 -4.78,11.628 l 0,0.081 -0.027,0.036 0.037,0 c 0.053,9.071 7.496,16.461 16.56,16.452 l 0.108,0 c 6.065,-0.036 11.645,-3.483 14.48,-8.749 l 0.37,-0.684 C -1.749,12.879 -2.469,11.125 -2.469,9.262 L -2.46,9.163 c 0.019,-1.998 0.856,-3.879 2.269,-5.499 l 0.188,-0.081 0.004,0 0.188,0.081 c 1.414,1.62 2.25,3.501 2.269,5.499 l 0.009,0.099 c 0,1.863 -0.72,3.617 -1.945,5.156 l 0.37,0.684 c 2.835,5.266 8.415,8.713 14.48,8.749 l 0.108,0 C 24.544,23.86 31.987,16.47 32.04,7.399 l 0.037,0 -0.027,-0.036 0,-0.081 C 32.04,2.898 30.357,-1.215 27.271,-4.346 24.157,-7.496 20.017,-9.242 15.579,-9.277 l -0.107,0 C 9.37,-9.277 3.745,-5.84 0.892,-0.531 0.721,-0.207 0.367,0 -0.002,0 L 0,0 z"
         inkscape:connector-curvature="0" />
    </g>
    <g
       transform="matrix(1.25,0,0,-1.25,398.65256,16.586555)"
       id="g3031">
      <path
         id="path3033"
         style="fill:#949494;fill-opacity:1;fill-rule:nonzero;stroke:none"
         d="m 0,0 c -0.1,-0.008 -0.207,-0.008 -0.307,-0.018 0.1,0.01 0.207,0.01 0.307,0.01 L 0,0"
         inkscape:connector-curvature="0" />
    </g>
    <g
       transform="matrix(1.25,0,0,-1.25,357.68094,16.58418)"
       id="g3035">
      <path
         id="path3037"
         style="fill:#adadad;fill-opacity:1;fill-rule:nonzero;stroke:none"
         d="m 0,0 0,-0.01 c 0.107,0 0.207,0 0.314,-0.008 C 0.207,-0.01 0.107,-0.01 0,0"
         inkscape:connector-curvature="0" />
    </g>
    <g
       transform="matrix(1.25,0,0,-1.25,358.07406,16.608555)"
       id="g3039">
      <path
         id="path3041"
         style="fill:#00a6f0;fill-opacity:1;fill-rule:evenodd;stroke:none"
         d="m 0,0 c -0.104,0.008 -0.209,0.01 -0.314,0.014 0.029,-0.559 0.552,-1.092 1.052,-1.547 0.61,-0.576 1.007,-1.129 1.001,-2.067 l 0,-0.007 C 1.734,-4.999 0.545,-5.997 -0.764,-6.003 l -0.007,0 c -1.325,0.01 -2.405,1.162 -2.413,2.427 l -0.002,0.043 c -0.003,0.955 0.507,1.517 0.965,1.957 0.501,0.494 0.989,0.881 1.02,1.588 -5.842,-0.252 -10.485,-5.077 -10.445,-10.974 0.041,-6.035 4.966,-10.893 10.998,-10.852 6.035,0.041 10.89,4.965 10.851,11.001 C 10.164,-5.052 5.662,-0.369 0,0"
         inkscape:connector-curvature="0" />
    </g>
    <g
       transform="matrix(1.25,0,0,-1.25,378.16919,42.394055)"
       id="g3043">
      <path
         id="path3045"
         style="fill:#000000;fill-opacity:1;fill-rule:nonzero;stroke:none"
         d="m 0,0 c -0.369,0 -0.723,-0.207 -0.894,-0.531 -2.853,-5.309 -8.478,-8.746 -14.58,-8.746 l -0.107,0 c -4.438,0.035 -8.578,1.781 -11.691,4.931 -3.087,3.131 -4.77,7.244 -4.78,11.628 l 0,0.081 -0.027,0.036 0.037,0 c 0.053,9.071 7.496,16.461 16.56,16.452 l 0.108,0 c 6.065,-0.036 11.645,-3.483 14.48,-8.749 l 0.37,-0.684 C -1.749,12.879 -2.469,11.125 -2.469,9.262 L -2.46,9.163 c 0.019,-1.998 0.856,-3.879 2.269,-5.499 l 0.188,-0.081 0.004,0 0.188,0.081 c 1.414,1.62 2.25,3.501 2.269,5.499 l 0.009,0.099 c 0,1.863 -0.72,3.617 -1.945,5.156 l 0.37,0.684 c 2.835,5.266 8.415,8.713 14.48,8.749 l 0.108,0 C 24.544,23.86 31.987,16.47 32.04,7.399 l 0.037,0 -0.027,-0.036 0,-0.081 C 32.04,2.898 30.357,-1.215 27.271,-4.346 24.157,-7.496 20.017,-9.242 15.579,-9.277 l -0.107,0 C 9.37,-9.277 3.745,-5.84 0.892,-0.531 0.721,-0.207 0.367,0 -0.002,0 L 0,0 z m -0.001,-23.516 0.466,0 c 0.449,0.004 0.895,0.024 1.342,0.043 l 0,-1.681 c 0,-0.854 0.671,-1.526 1.524,-1.526 0.855,0 1.525,0.672 1.525,1.526 l 0,1.951 c 17.053,2.224 31.841,16.469 31.075,34.463 l 0.001,-0.002 0,17.9 c 0,0.383 -0.147,0.767 -0.44,1.06 -0.293,0.293 -0.678,0.439 -1.06,0.439 -0.385,0 -0.768,-0.146 -1.061,-0.439 L 30.85,27.697 C 24.444,38.109 12.751,45.089 -0.001,45.003 -12.753,45.089 -24.446,38.109 -30.852,27.697 l -2.521,2.521 c -0.293,0.293 -0.676,0.439 -1.061,0.439 -0.382,0 -0.767,-0.146 -1.06,-0.439 -0.293,-0.293 -0.44,-0.677 -0.44,-1.06 l 0,-17.9 10e-4,0.002 c -0.766,-17.994 14.022,-32.239 31.075,-34.463 l 0,-1.951 c 0,-0.854 0.67,-1.526 1.525,-1.526 0.854,0 1.524,0.672 1.524,1.526 l 0,1.681 c 0.447,-0.019 0.893,-0.039 1.342,-0.043 l 0.466,0 z"
         inkscape:connector-curvature="0" />
    </g>
    <g
       transform="matrix(1.25,0,0,-1.25,358.99681,18.525055)"
       id="g3047">
      <path
         id="path3049"
         style="fill:#00608b;fill-opacity:1;fill-rule:nonzero;stroke:none"
         d="m 0,0 c 0.609,-0.576 1.007,-1.129 1.001,-2.066 l 0,-0.008 C 0.996,-3.466 -0.193,-4.464 -1.502,-4.47 l -0.007,0 c -1.325,0.01 -2.405,1.162 -2.413,2.427 L -3.924,-2 c -0.004,0.955 0.507,1.518 0.965,1.957 0.501,0.494 0.988,0.881 1.02,1.588 -3.92,-0.248 -7.014,-3.514 -6.986,-7.491 0.027,-4.123 3.392,-7.442 7.515,-7.414 4.123,0.029 7.441,3.394 7.415,7.515 C 5.979,-1.986 3.023,1.172 -0.738,1.533 -0.843,1.541 -0.947,1.543 -1.053,1.547 -1.023,0.988 -0.5,0.455 0,0"
         inkscape:connector-curvature="0" />
    </g>
    <g
       transform="matrix(1.25,0,0,-1.25,398.65506,16.58418)"
       id="g3051">
      <path
         id="path3053"
         style="fill:#adadad;fill-opacity:1;fill-rule:nonzero;stroke:none"
         d="m 0,0 0,-0.01 c -0.107,0 -0.207,0 -0.314,-0.008 C -0.207,-0.01 -0.107,-0.01 0,0"
         inkscape:connector-curvature="0" />
    </g>
    <g
       transform="matrix(1.25,0,0,-1.25,398.26194,16.608555)"
       id="g3055">
      <path
         id="path3057"
         style="fill:#ff0000;fill-opacity:1;fill-rule:evenodd;stroke:none"
         d="M 0,0 C 0.104,0.008 0.209,0.01 0.314,0.014 0.285,-0.545 -0.238,-1.078 -0.738,-1.533 -1.348,-2.109 -1.745,-2.662 -1.739,-3.6 l 0,-0.007 c 0.005,-1.392 1.194,-2.39 2.503,-2.396 l 0.007,0 c 1.325,0.01 2.405,1.162 2.413,2.427 l 0.002,0.043 C 3.189,-2.578 2.679,-2.016 2.221,-1.576 1.72,-1.082 1.232,-0.695 1.201,0.012 7.043,-0.24 11.686,-5.065 11.646,-10.962 11.605,-16.997 6.68,-21.855 0.648,-21.814 c -6.035,0.041 -10.89,4.965 -10.851,11.001 C -10.164,-5.052 -5.662,-0.369 0,0"
         inkscape:connector-curvature="0" />
    </g>
    <g
       transform="matrix(1.25,0,0,-1.25,397.33919,18.525055)"
       id="g3059">
      <path
         id="path3061"
         style="fill:#ad0000;fill-opacity:1;fill-rule:nonzero;stroke:none"
         d="m 0,0 c -0.609,-0.576 -1.007,-1.129 -1.001,-2.066 l 0,-0.008 c 0.005,-1.392 1.194,-2.39 2.503,-2.396 l 0.007,0 c 1.325,0.01 2.405,1.162 2.413,2.427 L 3.924,-2 C 3.928,-1.045 3.417,-0.482 2.959,-0.043 2.458,0.451 1.971,0.838 1.939,1.545 5.859,1.297 8.953,-1.969 8.925,-5.946 8.898,-10.069 5.533,-13.388 1.41,-13.36 c -4.123,0.029 -7.441,3.394 -7.415,7.515 0.026,3.859 2.982,7.017 6.743,7.378 0.105,0.008 0.209,0.01 0.315,0.014 C 1.023,0.988 0.5,0.455 0,0"
         inkscape:connector-curvature="0" />
    </g>
  </g>
  <path
     style="fill:url(#linearGradient3850);fill-opacity:1;display:inline"
     d="M 12.137504,0 C 5.435094,0 -1.9999945e-5,5.43508 0,12.1375 L 0,87.862501 C 0,94.564901 5.435094,100.00002 12.137504,100 l 75.725004,0 C 94.564948,100 99.999988,94.564901 100,87.862501 L 100,12.1375 C 100,5.43508 94.565168,0 87.862508,0 z"
     id="path7-8-6-9-9"
     inkscape:connector-curvature="0"
     sodipodi:nodetypes="sssssssss" />
</svg>
